public/assets/sponsors/triad-light.svg

<svg xmlns="http://www.w3.org/2000/svg" viewBox="0 0 1789 2701" fill="none" xmlns:v="https://vecta.io/nano"><g fill="#f7b927"><path d="M0 0h809v279H0zm0 1933h809v279H0z"/><path d="M515 0h294v2212H515zm1256 0H962v279h809zm0 1933H962v279h809z"/><path d="M1256 0H962v2212h294z"/></g><path d="M356.643 2335H0v41.98h153.087V2701h50.469v-324.02h153.087V2335zM820.5 2701l-130.893-152.32c62.244-8.61 97.011-45.75 97.011-106.03 0-68.9-44.861-107.65-124.488-107.65H433.34v366h50.468v-150.71h146.919L761 2701h59.5zm-336.692-324.02h168.789c54.954 0 82.431 21.53 82.431 65.67 0 44.13-27.477 65.66-82.431 65.66H483.808v-131.33zM883.481 2701h50.468v-366h-50.468v366zm449.569 0H1388l-180-366h-51.03l-90 183-90.006 183h52.706l47.11-96.34h209.16l47.11 96.34zm-151.41-313.25l84.11 174.92h-168.78l84.67-174.92zm410.59-52.75h-170.47v366h170.47c119.45 0 196.27-71.59 196.27-183s-76.82-183-196.27-183zm-5.6 324.02h-114.4v-282.04h114.4c93.08 0 150.28 53.83 150.28 141.02s-57.2 141.02-150.28 141.02z" fill="#000"/></svg>

<svg viewBox="0 0 1789 2701" fill="none" xmlns="http://www.w3.org/2000/svg">
<rect width="809" height="279" fill="#F7B927"/>
<rect y="1933" width="809" height="279" fill="#F7B927"/>
<rect x="515" width="294" height="2212" fill="#F7B927"/>
<rect width="809" height="279" transform="matrix(-1 0 0 1 1771 0)" fill="#F7B927"/>
<rect width="809" height="279" transform="matrix(-1 0 0 1 1771 1933)" fill="#F7B927"/>
<rect width="294" height="2212" transform="matrix(-1 0 0 1 1256 0)" fill="#F7B927"/>
<path d="M356.643 2335H0V2376.98H153.087V2701H203.556V2376.98H356.643V2335Z" fill="black"/>
<path d="M820.5 2701L689.607 2548.68C751.851 2540.07 786.618 2502.93 786.618 2442.65C786.618 2373.75 741.757 2335 662.13 2335H433.34V2701H483.808V2550.29H630.727L761 2701H820.5ZM483.808 2376.98H652.597C707.551 2376.98 735.028 2398.51 735.028 2442.65C735.028 2486.78 707.551 2508.31 652.597 2508.31H483.808V2376.98Z" fill="black"/>
<path d="M883.481 2701H933.949V2335H883.481V2701Z" fill="black"/>
<path d="M1333.05 2701H1388L1208 2335H1156.97L1066.97 2518L976.964 2701H1029.67L1076.78 2604.66H1285.94L1333.05 2701ZM1181.64 2387.75L1265.75 2562.67H1096.97L1181.64 2387.75Z" fill="black"/>
<path d="M1592.23 2335H1421.76V2701H1592.23C1711.68 2701 1788.5 2629.41 1788.5 2518C1788.5 2406.59 1711.68 2335 1592.23 2335ZM1586.63 2659.02H1472.23V2376.98H1586.63C1679.71 2376.98 1736.91 2430.81 1736.91 2518C1736.91 2605.19 1679.71 2659.02 1586.63 2659.02Z" fill="black"/>
</svg>
